X: 40477
T: Tomaisin A' Rí
R: jig
M: 6/8
K: Dmajor
dc|:BEE EFA|BAB d2 B|AFF DED|FDF AFD|
BEE EFA|BAB d2 e|dBA AFD|1 FED E2 d/c/:|2 FED E2 A||
|:Bee Bee|fef d2 B|Add Bdd|Add Bcd|
Bee Bee|fef d2 e|fdB AFD|FED E2z:|

